pro/src/icons/stroke-release.svg

<svg width="48" height="48" fill="none" xmlns="http://www.w3.org/2000/svg">
    <path fill-rule="evenodd" clip-rule="evenodd" id="icon"
          d="M29.8193 11.5189C30.6696 10.9578 31.5619 10.4638 32.4682 10.0292C34.5966 12.9822 37.1676 15.5817 40.1011 17.7203C39.1782 19.6823 37.9912 21.5623 36.4696 23.0962C33.8081 25.7793 30.3059 28.7077 27.1708 31.1962C26.7376 31.5401 26.6656 32.1695 27.01 32.602C27.3545 33.0345 27.9849 33.1063 28.4181 32.7625C28.7319 32.5134 29.0499 32.2595 29.3709 32.0015C28.958 34.1987 28.1117 36.4129 27.2363 38.2814C26.7742 39.2678 26.3117 40.1418 25.9164 40.8456C25.3186 39.2698 24.5886 37.7624 23.7394 36.3364C24.0419 36.112 24.3627 35.8734 24.6986 35.6221C25.1416 35.2908 25.2316 34.6638 24.8998 34.2215C24.568 33.7793 23.9399 33.6894 23.497 34.0207C23.0133 34.3824 22.5607 34.7181 22.1471 35.0246L22.0227 35.1168L22.0216 35.1176C21.6601 35.3854 21.3292 35.6306 21.0378 35.8485C20.6074 36.1603 20.0255 36.1154 19.6411 35.728L14.6186 30.6647C14.2348 30.2777 14.1886 29.6659 14.4978 29.2413L14.4979 29.2413L14.5019 29.2357C16.5774 26.3442 21.4114 19.7896 25.8958 14.9876C26.2732 14.5834 26.251 13.9503 25.8462 13.5735C25.4414 13.1967 24.8073 13.2189 24.4299 13.623C22.9928 15.1619 21.5243 16.8724 20.1214 18.5848C17.3301 18.7799 14.1147 19.9837 11.6041 21.1204C10.2109 21.7512 8.9928 22.3811 8.12301 22.8533C7.68769 23.0896 7.33854 23.287 7.09709 23.4259C6.97634 23.4954 6.88245 23.5504 6.81812 23.5883L6.74408 23.6322L6.7243 23.644L6.71634 23.6488C6.37847 23.8525 6.19181 24.2352 6.23956 24.6263C6.28731 25.0175 6.56057 25.3442 6.93755 25.4609C9.02837 26.1081 11.0078 27.0044 12.8434 28.1113C12.1346 29.1235 12.1225 30.4319 12.7167 31.4503L11.7875 33.1261L11.7867 33.1276C11.1909 34.2062 10.9615 35.6844 11.9313 36.6621L13.6542 38.399C14.631 39.3836 16.1121 39.1488 17.1859 38.546L18.8323 37.6183C19.8358 38.2186 21.1121 38.2095 22.12 37.5341C23.1891 39.3607 24.0492 41.3291 24.6693 43.4085L24.6707 43.4155C24.7494 43.8125 25.06 44.123 25.4575 44.2022C25.855 44.2815 26.2614 44.1134 26.4868 43.7771L26.4883 43.7748L26.4919 43.7695L26.5044 43.7507C26.515 43.7346 26.5302 43.7115 26.5497 43.6816C26.5886 43.6218 26.6447 43.5348 26.7154 43.4228C26.8569 43.1987 27.0573 42.874 27.2968 42.4652C27.7755 41.6484 28.4134 40.4919 29.0518 39.1291C30.2203 36.6348 31.4375 33.3529 31.6145 30.167C33.8282 28.3235 36.0482 26.3647 37.8936 24.5043C40.5516 21.8247 42.2301 18.2997 43.2924 15.099C44.3576 11.8897 44.8278 8.93103 45.0258 7.31322C45.1869 6.03978 44.1219 4.9014 42.7997 5.07043C40.1683 5.3916 33.809 6.48758 28.7142 9.84961C28.2525 10.1543 28.1256 10.775 28.4307 11.2359C28.7359 11.6969 29.3576 11.8236 29.8193 11.5189ZM12.4318 22.9427C14.2732 22.109 16.3524 21.312 18.275 20.8836C16.6256 22.9757 15.1457 24.9522 14.0225 26.4852C12.6416 25.6417 11.1831 24.909 9.6591 24.3017C10.4258 23.8978 11.3777 23.42 12.4318 22.9427ZM40.9061 15.8253C38.4187 13.955 36.2146 11.7258 34.3525 9.21273C37.8469 7.84729 41.2652 7.2739 43.0378 7.05724L43.0377 7.05987L43.0374 7.06264L43.0367 7.06816C42.8482 8.60884 42.3995 11.4278 41.3899 14.4696C41.2407 14.9193 41.0797 15.3722 40.9061 15.8253ZM13.5418 34.0938L14.1361 33.0219L17.2825 36.1938L16.2031 36.8021C15.8573 36.9961 15.5651 37.0649 15.3641 37.0669C15.1696 37.0688 15.0994 37.0123 15.0783 36.9909L13.3554 35.2541C13.3228 35.2212 13.1147 34.8673 13.5418 34.0938ZM27.7964 20.5583C27.7964 19.5146 28.6332 18.6851 29.6449 18.6851C30.6567 18.6851 31.4935 19.5146 31.4935 20.5583C31.4935 21.602 30.6567 22.4315 29.6449 22.4315C28.6332 22.4315 27.7964 21.602 27.7964 20.5583ZM29.6449 16.6841C27.508 16.6841 25.7922 18.4278 25.7922 20.5583C25.7922 22.6888 27.508 24.4325 29.6449 24.4325C31.7819 24.4325 33.4977 22.6888 33.4977 20.5583C33.4977 18.4278 31.7819 16.6841 29.6449 16.6841ZM10.9328 40.5466C11.3223 40.154 11.3192 39.5206 10.926 39.1318C10.5327 38.7429 9.89824 38.746 9.50879 39.1386L5.33208 43.3492C4.94263 43.7418 4.94571 44.3753 5.33895 44.7641C5.73219 45.1529 6.36668 45.1498 6.75612 44.7572L10.9328 40.5466ZM14.0583 40.1845C14.4516 40.5733 14.4547 41.2068 14.0652 41.5994L12.0291 43.6521C11.6396 44.0447 11.0051 44.0477 10.6119 43.6589C10.2187 43.2701 10.2156 42.6366 10.605 42.244L12.6412 40.1914C13.0306 39.7988 13.6651 39.7957 14.0583 40.1845ZM9.88868 37.3889C10.2781 36.9963 10.275 36.3628 9.88181 35.974C9.48857 35.5852 8.85408 35.5882 8.46463 35.9808L7.42045 37.0335C7.03101 37.4261 7.03409 38.0595 7.42732 38.4484C7.82056 38.8372 8.45506 38.8341 8.8445 38.4415L9.88868 37.3889Z"
          fill="currentColor"/>
</svg>

<svg xmlns="http://www.w3.org/2000/svg" width="48" height="48" fill="none"><path id="icon" fill="currentColor" fill-rule="evenodd" d="M29.82 11.519a22 22 0 0 1 2.648-1.49 34.4 34.4 0 0 0 7.633 7.691c-.923 1.962-2.11 3.842-3.631 5.376-2.662 2.683-6.164 5.612-9.3 8.1a1 1 0 0 0-.16 1.406c.345.433.975.504 1.408.16q.471-.373.953-.76c-.413 2.197-1.26 4.41-2.135 6.28-.462.986-.924 1.86-1.32 2.564a28.7 28.7 0 0 0-2.177-4.51q.455-.337.96-.714a1 1 0 0 0 .2-1.4 1.003 1.003 0 0 0-1.402-.201l-1.35 1.004-.124.092h-.001c-.362.268-.693.514-.984.732a1.066 1.066 0 0 1-1.397-.121l-5.022-5.063a1.11 1.11 0 0 1-.121-1.424l.004-.005c2.075-2.892 6.91-9.446 11.394-14.248a1 1 0 0 0-.05-1.415 1.003 1.003 0 0 0-1.416.05 103 103 0 0 0-4.309 4.962c-2.79.195-6.006 1.399-8.517 2.535a55 55 0 0 0-4.507 2.306l-.279.162-.074.044-.02.012-.008.005a1 1 0 0 0 .222 1.812c2.09.647 4.07 1.543 5.905 2.65a3.1 3.1 0 0 0-.126 3.34l-.93 1.675v.002c-.596 1.078-.826 2.556.144 3.534l1.723 1.737c.977.985 2.458.75 3.532.147l1.646-.928c1.004.6 2.28.591 3.288-.084a26.8 26.8 0 0 1 2.55 5.874v.008a1.001 1.001 0 0 0 1.817.361l.001-.002.004-.005.012-.02a18 18 0 0 0 .211-.327c.142-.224.342-.549.582-.958a42 42 0 0 0 1.755-3.336c1.168-2.494 2.386-5.776 2.563-8.962 2.213-1.844 4.433-3.802 6.279-5.663 2.658-2.68 4.336-6.204 5.398-9.405 1.066-3.21 1.536-6.168 1.734-7.786.16-1.273-.904-2.412-2.226-2.243-2.632.322-8.991 1.418-14.086 4.78a1 1 0 0 0-.283 1.386c.305.46.927.588 1.388.283M12.431 22.943c1.841-.834 3.92-1.631 5.843-2.06a202 202 0 0 0-4.252 5.602 29 29 0 0 0-4.364-2.183 52 52 0 0 1 2.773-1.36m28.474-7.118a32.4 32.4 0 0 1-6.553-6.612c3.494-1.366 6.912-1.94 8.685-2.156v.006l-.001.005c-.189 1.54-.637 4.36-1.647 7.402q-.224.675-.484 1.355m-27.363 18.27.594-1.072 3.146 3.172-1.079.608c-.346.194-.638.263-.839.265-.194.002-.265-.055-.286-.076l-1.723-1.737c-.032-.033-.24-.387.187-1.16m14.254-13.536c0-1.043.837-1.873 1.849-1.873s1.849.83 1.849 1.873a1.86 1.86 0 0 1-1.85 1.874 1.86 1.86 0 0 1-1.848-1.874m1.849-3.874c-2.137 0-3.853 1.744-3.853 3.874s1.716 3.875 3.853 3.875 3.853-1.744 3.853-3.875c0-2.13-1.716-3.874-3.853-3.874M10.933 40.547a1 1 0 0 0-.007-1.415 1.003 1.003 0 0 0-1.417.007l-4.177 4.21a1 1 0 0 0 .007 1.415 1.003 1.003 0 0 0 1.417-.007zm3.125-.362a1 1 0 0 1 .007 1.414l-2.036 2.053a1.003 1.003 0 0 1-1.417.007 1 1 0 0 1-.007-1.415l2.036-2.053a1.003 1.003 0 0 1 1.417-.007m-4.17-2.796a1 1 0 0 0-.006-1.415 1.003 1.003 0 0 0-1.417.007L7.42 37.033a1 1 0 0 0 .007 1.415 1.003 1.003 0 0 0 1.418-.007z" clip-rule="evenodd"/></svg>
